X: 147
T: La Beaut\`e
%R: reel
N: Yeah, it it should be an accent aigu, not grave.
B: Chas & Sam Thompson "Twenty Four Country Dances for the Year 1782", London 1782, p.74 #1
F: http://www.vwml.org/browse/browse-collections-dance-tune-books/browse-thompsons1782
Z: 2014 John Chambers <jc:trillian.mit.edu> (added dance description)
M: C|
L: 1/16
K: A
% - - - - - - - - - - - - - - - - - - - - - - - - - - - - -
|:\
edcB A2a2 f4 e4 | d2c2B2A2 BAGF E4 |\
edcB A2a2 fedc B2a2 | g2fe B2^d2 e4 E4 :|
|:\
BAGF E2c2 d4 c4 | d2c2B2A2 BAGF E4 |\
A3BA3B c2d2e2E2 | F2dB A2G2 A4- A4 :|
% - - - - - - - - - - Dance description - - - - - - - - - -
%%begintext align
%% Cast of two Cu: and up again .|. cross over
%% 2 Cu: lead thro the top and cast of :|. set
%% Corners and turn .|: lead outsides
%%endtext

%%sep 1 1 500
%%sep 1 1 500
